build/service/CloseCircleSolid.svg

<svg xmlns="http://www.w3.org/2000/svg" fill="none" viewBox="0 0 24 24" focusable="false"><path d="M0 0H24V24H0z"/><path fill="#74767B" fill-rule="evenodd" d="M3 12C3 7.02944 7.02944 3 12 3C16.9706 3 21 7.02944 21 12C21 16.9706 16.9706 21 12 21C7.02944 21 3 16.9706 3 12ZM16 8.08078C16.2538 8.33462 16.2538 8.74618 16 9.00002L12.9193 12L15.9192 15.0808C16.1731 15.3346 16.1731 15.7462 15.9192 16C15.6654 16.2538 15.2538 16.2538 15 16L12 12.9193L9.00002 16C8.74618 16.2539 8.33462 16.2539 8.08078 16C7.82694 15.7462 7.82694 15.3346 8.08078 15.0808L11.0808 12L8.08075 9.00002C7.82691 8.74618 7.82691 8.33462 8.08075 8.08078C8.33459 7.82694 8.74615 7.82694 8.99999 8.08078L12 11.0808L15.0808 8.08078C15.3346 7.82694 15.7462 7.82694 16 8.08078Z"/></svg>

<svg xmlns="http://www.w3.org/2000/svg" fill="none" viewBox="0 0 24 24" focusable="false"><path fill="#74767B" fill-rule="evenodd" d="M3 12c0-4.98 4.02-9 9-9 4.97 0 9 4.02 9 9a9 9 0 0 1-9 9c-4.98 0-9-4.03-9-9m13-3.92c.25.25.25.66 0 .92l-3.09 3 3 3.08c.26.25.26.66 0 .92-.25.25-.66.25-.91 0l-3-3.09L9 16c-.26.25-.67.25-.92 0a.64.64 0 0 1 0-.92l3-3.08-3-3a.64.64 0 0 1 0-.92.64.64 0 0 1 .92 0l3 3 3.08-3a.64.64 0 0 1 .92 0"/></svg>
